X:81
T:The Bonnie Hills of Riverton
R:waltz
C: 1997, 2010 L.E. McCullough 
M:3/4
L:1/8
K:G
GA|:B4 BA|B2 c2 d2|G4 GF|G2 A2 B2|
E4 ED|E2 F2 G2|B3A GB|A4 GA|
B4 BA|B2 c2 d2|G4 GF|G2 A2 B2|
E4 ED|E2 F2 G2|B3A GF|1 G4 GA:|2 G4 Bd|]
|:e3f ed|gf e2 fg|a3b ag|
[1 ag f2 ed|e3f ed|gf e2 fg|ad fa gf|e4 Bd:|
[2 ag f2 ga|b3a ga|b2 c'2 b2|a3g fg|a4 ed|]
W:*Repeat A Section once
W:
W:
W:
W:
<end>
<start>
